icons/linear-ele-container-shopping-bag-1.svg

<svg xmlns="http://www.w3.org/2000/svg" width="32px" height="32px" viewBox="0 0 32 32" version="1.1">
    <title>linear-ele-container-shopping-bag-1</title>
    <g id="linear-ele-container-shopping-bag-1" stroke-width="1" fill-rule="evenodd">
        <path d="M16,2 C19.3137085,2 22,4.6862915 22,8 L27,8 C27.5522847,8 28,8.44771525 28,9 L28,29 C28,29.5522847 27.5522847,30 27,30 L5,30 C4.44771525,30 4,29.5522847 4,29 L4,9 C4,8.44771525 4.44771525,8 5,8 L10,8 C10,4.6862915 12.6862915,2 16,2 Z M26,24 L6,24 L6,28 L26,28 L26,24 Z M10,10 L6,10 L6,22 L26,22 L26,10 L22,10 L22,13 C22,13.5522847 21.5522847,14 21,14 C20.4477153,14 20,13.5522847 20,13 L20,10 L12,10 L12,13 C12,13.5522847 11.5522847,14 11,14 C10.4477153,14 10,13.5522847 10,13 L10,10 Z M16,4 C13.790861,4 12,5.790861 12,8 L20,8 C20,5.790861 18.209139,4 16,4 Z" id="&#24418;&#29366;" fill-rule="nonzero" />
    </g>
</svg>

<svg xmlns="http://www.w3.org/2000/svg" viewBox="0 0 32 32"><path fill="currentColor" d="M16 2a6 6 0 0 1 6 6h5a1 1 0 0 1 1 1v20a1 1 0 0 1-1 1H5a1 1 0 0 1-1-1V9a1 1 0 0 1 1-1h5a6 6 0 0 1 6-6m10 22H6v4h20zM10 10H6v12h20V10h-4v3a1 1 0 0 1-2 0v-3h-8v3a1 1 0 0 1-2 0zm6-6a4 4 0 0 0-4 4h8a4 4 0 0 0-4-4"/></svg>
